svg/24/logo-adobe-media-encoder.svg

<svg width="24" height="24" viewBox="0 0 24 24" fill="currentColor" xmlns="http://www.w3.org/2000/svg"><path d="M17.0779 11.8154H15.4625C15.4856 11.6384 15.5394 11.4692 15.624 11.3077C15.824 10.9231 16.224 10.7 16.6471 10.7231C17.1009 10.7077 17.5086 11 17.6471 11.4307C17.6779 11.5231 17.6933 11.6154 17.6933 11.7154V11.7923C17.6394 11.8 17.5779 11.8077 17.5163 11.8077C17.424 11.8154 17.2779 11.8154 17.0779 11.8154Z"/><path fill-rule="evenodd" clip-rule="evenodd" d="M17.9618 3H6.03876C4.23107 3 2.76953 4.46154 2.76953 6.26923V17.7308C2.76953 19.5385 4.23107 21 6.03876 21H17.9618C19.7695 21 21.2311 19.5385 21.2311 17.7308V6.26923C21.2311 4.46154 19.7695 3 17.9618 3ZM5.46249 7.60767C5.41633 7.60767 5.37787 7.63844 5.37018 7.68459L4.9548 15.6077C4.9471 15.6538 4.9471 15.6846 4.97018 15.7C4.99326 15.7077 5.02403 15.7154 5.0471 15.7154H6.40864C6.47018 15.7154 6.50095 15.6846 6.50095 15.6154C6.52403 15.1 6.5471 14.5692 6.56249 14.0384C6.56984 13.7849 6.57543 13.5349 6.58094 13.2884C6.58698 13.0189 6.59291 12.7535 6.60095 12.4923C6.60817 12.2575 6.6137 12.0278 6.61913 11.8024C6.62525 11.5478 6.63125 11.2986 6.63941 11.0538C6.63995 11.0218 6.6405 10.99 6.64104 10.9583C6.64815 10.5405 6.6548 10.1503 6.6548 9.79998V8.82305H6.67787C6.73941 9.09228 6.80864 9.40767 6.88557 9.76152C6.96249 10.1154 7.0471 10.4923 7.13941 10.9C7.23172 11.3 7.33172 11.7231 7.43941 12.1538C7.5471 12.5846 7.6471 13.0077 7.73941 13.4231C7.83172 13.8384 7.92403 14.2384 8.01633 14.6154C8.07153 14.8613 8.12673 15.0875 8.17766 15.2962C8.2048 15.4075 8.23073 15.5137 8.2548 15.6154C8.26249 15.6846 8.32403 15.7231 8.39326 15.7154H9.73941C9.80095 15.7154 9.8548 15.6769 9.87018 15.6154C9.93941 15.3307 10.024 14.9923 10.1317 14.6154C10.2394 14.2384 10.3471 13.8307 10.4625 13.3923C10.5779 12.9538 10.6933 12.5154 10.8163 12.0692C10.8771 11.8342 10.9379 11.6034 10.9976 11.3769C11.0512 11.1735 11.1038 10.9735 11.1548 10.7769C11.2625 10.3538 11.3548 9.9769 11.4317 9.64613C11.5086 9.31536 11.5702 9.04613 11.6163 8.83844H11.6317C11.6317 8.96921 11.6317 9.16921 11.624 9.43844C11.6163 9.70767 11.6163 10.0231 11.6163 10.3846C11.6163 10.7218 11.6099 11.0782 11.6029 11.4656C11.6023 11.5024 11.6016 11.5395 11.601 11.5769C11.5933 12.0077 11.5933 12.4538 11.601 12.9231C11.6048 13.1567 11.6067 13.3885 11.6086 13.6192C11.6105 13.8519 11.6125 14.0836 11.6163 14.3154C11.624 14.7769 11.624 15.2154 11.624 15.6384C11.624 15.6615 11.6317 15.6923 11.6471 15.7077C11.6519 15.7093 11.6564 15.7109 11.6607 15.7124C11.6769 15.7182 11.6904 15.7231 11.7086 15.7231H13.2394C13.2702 15.7231 13.2933 15.7154 13.3163 15.6923C13.3317 15.6769 13.3394 15.6461 13.3317 15.6154L13.0471 7.69998V7.69229C13.0394 7.64613 12.9933 7.60767 12.9394 7.61536H10.8317C10.7779 7.60767 10.7317 7.64613 10.724 7.69998C10.6702 7.91536 10.6009 8.18459 10.5086 8.49998C10.4652 8.66176 10.4178 8.83163 10.3684 9.00856C10.3214 9.17656 10.2727 9.35091 10.224 9.53075C10.1702 9.71921 10.1183 9.90767 10.0663 10.0961C10.0144 10.2846 9.96249 10.4731 9.90864 10.6615C9.87769 10.7699 9.84673 10.8776 9.81596 10.9846C9.73968 11.2501 9.66451 11.5116 9.59326 11.7692C9.58006 11.8159 9.56701 11.862 9.5541 11.9076C9.46917 12.2078 9.3908 12.4847 9.32403 12.7384C9.2471 13.0231 9.19326 13.2538 9.16249 13.4307H9.1471C9.12489 13.3197 9.09753 13.188 9.06653 13.0388C9.04387 12.9298 9.01925 12.8113 8.99326 12.6846C8.93172 12.3846 8.8548 12.0538 8.76249 11.6923C8.67018 11.3307 8.57787 10.9615 8.48557 10.5846C8.39326 10.2077 8.30095 9.83075 8.20864 9.46921C8.11633 9.09998 8.03172 8.76921 7.9548 8.46921C7.91292 8.30169 7.87332 8.15013 7.83724 8.01205C7.80705 7.89651 7.77933 7.79041 7.7548 7.69229C7.73941 7.63844 7.68556 7.59998 7.62403 7.60767H5.46249ZM15.4625 13.0231H17.9009C17.9991 13.0231 18.0973 13.021 18.1934 13.0191C18.2856 13.0172 18.3759 13.0154 18.4625 13.0154C18.6394 13.0154 18.7856 13.0077 18.9086 12.9923C18.9518 12.9896 18.9903 12.9869 19.024 12.9845C19.0864 12.9801 19.1325 12.9769 19.1625 12.9769C19.2163 12.9769 19.2625 12.9307 19.2702 12.8769C19.2736 12.8461 19.277 12.8076 19.2811 12.7615C19.2862 12.7041 19.2924 12.6349 19.3009 12.5538C19.3086 12.4077 19.3163 12.2461 19.3163 12.0615C19.3163 11.7461 19.2702 11.4307 19.1702 11.1231C19.0702 10.8 18.9086 10.5077 18.7086 10.2461C18.5009 9.96921 18.2163 9.75382 17.9009 9.60767C17.524 9.43844 17.1163 9.36152 16.7086 9.36921C16.2702 9.36152 15.824 9.45382 15.424 9.63844C15.0625 9.81536 14.7471 10.0615 14.4933 10.3692C14.2317 10.6846 14.0394 11.0384 13.9163 11.4231C13.7856 11.8231 13.724 12.2307 13.724 12.6461C13.724 13.0307 13.7779 13.4077 13.8856 13.7692C13.9933 14.1384 14.1702 14.4769 14.4163 14.7769C14.6779 15.0923 15.0086 15.3461 15.3856 15.5077C15.7856 15.6846 16.2779 15.7769 16.8625 15.7769C17.2317 15.7846 17.5933 15.7538 17.9548 15.6846C18.2394 15.6231 18.5086 15.5384 18.7625 15.4154C18.7856 15.4 18.801 15.3846 18.8163 15.3615C18.824 15.3307 18.8317 15.3 18.8317 15.2692V14.0923C18.8317 14.0154 18.8086 14 18.7702 14.0307C18.5394 14.1307 18.2933 14.2 18.0471 14.2461C17.7856 14.2923 17.5163 14.3154 17.2471 14.3154C16.8394 14.3154 16.5163 14.2538 16.2625 14.1384C16.0317 14.0461 15.8394 13.8846 15.701 13.6769C15.5702 13.4769 15.4933 13.2538 15.4625 13.0231Z"/></svg>

<svg xmlns="http://www.w3.org/2000/svg" width="24" height="24" fill="currentColor" viewBox="0 0 24 24">
  <path d="M17.078 11.815h-1.615c.023-.177.076-.346.161-.507.2-.385.6-.608 1.023-.585a1.018 1.018 0 0 1 1.046.992v.077a1.262 1.262 0 0 1-.177.016 6.458 6.458 0 0 1-.438.007Z"/>
  <path fill-rule="evenodd" d="M17.962 3H6.039a3.266 3.266 0 0 0-3.27 3.27v11.46A3.266 3.266 0 0 0 6.04 21h11.923a3.267 3.267 0 0 0 3.27-3.27V6.27A3.267 3.267 0 0 0 17.961 3Zm-12.5 4.608a.091.091 0 0 0-.092.077l-.415 7.923c-.008.046-.008.077.015.092a.273.273 0 0 0 .077.015H6.41c.061 0 .092-.03.092-.1a100.21 100.21 0 0 0 .08-2.327c.006-.27.012-.534.02-.796l.018-.69c.006-.254.012-.503.02-.748l.002-.096c.007-.418.014-.808.014-1.158v-.977h.023c.061.27.13.585.208.939a70.876 70.876 0 0 0 .554 2.392c.107.43.207.854.3 1.27.092.414.184.814.276 1.191.056.246.11.473.162.681l.077.32c.007.069.069.107.138.1H9.74a.132.132 0 0 0 .131-.1c.07-.285.154-.624.262-1 .107-.378.215-.785.33-1.224.116-.438.231-.877.354-1.323l.182-.692.157-.6a56.568 56.568 0 0 0 .461-1.939h.016c0 .131 0 .331-.008.6-.008.27-.008.585-.008.947 0 .337-.006.693-.013 1.08l-.002.112c-.008.43-.008.877 0 1.346.004.234.006.466.008.696l.007.696c.008.462.008.9.008 1.323 0 .024.008.054.023.07l.014.004a.13.13 0 0 0 .048.011h1.53a.102.102 0 0 0 .077-.03c.016-.016.023-.047.016-.078L13.047 7.7v-.008a.096.096 0 0 0-.108-.077h-2.107a.096.096 0 0 0-.108.085c-.054.215-.123.485-.215.8l-.14.509c-.048.168-.096.342-.145.522-.054.188-.106.377-.158.565a60.28 60.28 0 0 1-.25.889 337.362 337.362 0 0 1-.262.923c-.085.3-.163.577-.23.83-.077.285-.13.516-.162.693h-.015a57.853 57.853 0 0 0-.154-.746c-.061-.3-.138-.631-.23-.993-.093-.361-.185-.73-.277-1.107-.093-.377-.185-.754-.277-1.116a167.217 167.217 0 0 0-.454-1.777.12.12 0 0 0-.131-.084H5.462Zm10 5.415h2.439c.098 0 .196-.002.292-.004.093-.002.183-.004.27-.004.176 0 .323-.007.446-.023l.115-.008c.062-.004.108-.007.139-.007.053 0 .1-.046.107-.1.004-.03.007-.07.011-.116.005-.057.011-.126.02-.207.008-.146.015-.308.015-.492 0-.316-.046-.631-.146-.939a2.817 2.817 0 0 0-.461-.877 2.118 2.118 0 0 0-.808-.638 2.779 2.779 0 0 0-1.192-.239 2.965 2.965 0 0 0-1.285.27 2.787 2.787 0 0 0-.93.73c-.262.316-.455.67-.578 1.054-.13.4-.192.808-.192 1.223 0 .385.054.762.162 1.123.107.37.284.708.53 1.008.262.315.593.57.97.73.4.178.892.27 1.477.27.369.008.73-.023 1.092-.092.284-.062.554-.147.808-.27a.178.178 0 0 0 .053-.053c.008-.031.016-.062.016-.093v-1.177c0-.077-.023-.092-.062-.061-.23.1-.477.169-.723.215a4.62 4.62 0 0 1-.8.07c-.408 0-.73-.062-.985-.178a1.219 1.219 0 0 1-.561-.461c-.13-.2-.208-.423-.239-.654Z" clip-rule="evenodd"/>
</svg>
